X:1
T:Kyoto, CMD
T:Kyoto, CMD
T:Anonymous, in ‟Heart & Voice,” 1881
T:Public Domain Courtesy of the Cyber Hymnal™
C:Anonymous, in ‟Heart & Voice,” 1881
Z:Public Domain
Z:Courtesy of the Cyber Hymnal™
%%score ( 1 2 ) ( 3 4 )
L:1/8
Q:1/4=107
M:6/8
K:Bb
V:1 treble 
V:2 treble 
V:3 bass 
V:4 bass 
V:1
 F | [Fd]2 [Ec] [Fd]2 [Ec] | [DB]2 [EA] [FB]2 [DF] | [CE]2 [=B,D] [CE]2 [DF] | %4
 [B,D]3- [B,D]2 [DF] | [EG]2 E [GB]2 [EG] | [DF]2 D [DB]2 [FA] | [=EG]2 [EB] [Ed]2 [Ec] | %8
 [F-c]3 =F2 F | [Fd]2 [Ec] [Fd]2 [Ec] | [DB]2 [EA] [FB]2 [DF] | [CE]2 [=B,D] [CE]2 [DF] | %12
 [B,D]3- [B,D]2 [DF] | [EG]2 E [GB]2 [EG] | [DF]2 D !fermata![FB]2 F | [Fd]2 [Ec] [DB]2 [CA] | %16
 [DB]3- [DB]2 |] %17
V:2
 F | x6 | x6 | x6 | x6 | x2 E x3 | x2 D x3 | x6 | x3 =F2 F | x6 | x6 | x6 | x6 | x2 E x3 | %14
 x2 D x F x | x6 | x5 |] %17
V:3
 F, | [B,,B,]2 [B,,B,] [B,,B,]2 [B,,B,] | [B,,B,]2 [C,F,] [D,F,]2 [B,,B,] | %3
 [F,A,]2 [F,A,] [F,A,]2 [F,A,] | [B,,B,]3- [B,,B,]2 [B,,B,] | [E,B,]2 [E,G,] [E,B,]2 [E,B,] | %6
 [B,,B,]2 [B,,B,] [B,,B,]2 [B,,B,] | [C,B,]2 [C,B,] [C,B,]2 [C,B,] | [F,A,]3- [F,A,]2 [F,A,] | %9
 [B,,B,]2 [B,,B,] [B,,B,]2 [B,,B,] | [B,,B,]2 [C,F,] [D,F,]2 [B,,B,] | %11
 [F,A,]2 [F,A,] [F,A,]2 [F,A,] | [B,,B,]3- [B,,B,]2 [B,,B,] | [E,B,]2 [E,G,] [E,B,]2 [E,B,] | %14
 [B,,B,]2 [B,,B,] !fermata![D,B,]2 [D,B,] | [F,B,]2 F, F,2 F, | [B,,F,]3- [B,,F,]2 |] %17
V:4
 F, | x6 | x6 | x6 | x6 | x6 | x6 | x6 | x6 | x6 | x6 | x6 | x6 | x6 | x6 | x2 F, F,2 F, | x5 |] %17

